X:1
T:18.  Mit Freuden zart
T:Hugo Distler
T:Georg Vetter (1536 - 1599)
T:18.  In Quiet Joy Mit Freuden zart Easter
T:Bärenreiter Verlag
T:Bärenreiter Verlag
T:Bärenreiter Verlag
T:Bärenreiter Verlag
T:Bärenreiter Verlag
T:Bärenreiter Verlag
T:Bärenreiter Verlag
C:Hugo Distler
Z:Georg Vetter
Z:(1536 - 1599)
Z:Bärenreiter Verlag
%%score [ 1 2 3 ]
L:1/8
Q:1/4=100
M:4/4
K:E
V:1 treble nm="Sop. 1"
V:2 treble nm="Sop. 2"
V:3 treble nm="Alto"
V:1
 z2 E2 G2 A2 | !breath!B4 e2 (d2- | dc B2 c2) c2 | !breath!B2 c3 B A2 | G2 (F3 G) A2 | F4 E4 | %6
w: 1. In qui- et|joy we jour-|* * * * ney|on, to- geth- er,|joy- ful- * ly|sing- ing,|
w: 2. He is the|best who, firm|_ _ _ _ and|strong, de- stryed our|foes, all _ in-|fer- nal,|
w: 3. The peace so|free that You|_ _ _ _ have|giv’n may we en-|joy all _ our|life long.|
 z2 E2 G2 A2 | !breath!B4 e2 (d2- | dc B2 c2) c2 | !breath!B2 c3 B A2 | G2 (F3 G) A2 | %11
w: both great and|small, and pure|_ _ _ _ in|heart, our joy- ous|song loud- * ly|
w: and with His|death as Lord|_ _ _ _ and|God has brought new|life, life _ e-|
w: Grant us the|gift to bear|_ _ _ _ our|lives with- out de-|spair, with _ pa-|
 F4 !breath!E4 | e4 d2 c2 | B2 e2 (d3 e | f2 d2) c4 | !breath!B3 B E2 F2 | !breath!G2 F2 (G^A B2- | %17
w: ring- ing.|Sal- va- tion|now to us _|_ _ has|come, for Christ from|death to life _ _|
w: ter- nal,|as prom- ised|us by an- *|* * gel|hosts and by His|word; to heav- * *|
w: tience strong|that all the|days you’ve giv’n _|_ _ to|us in pa- tience|may, by Your _ _|
 B)B !breath!B4 B2 |[M:6/4] c2 =A2 F4 G2 A2 |[M:4/4] F4 E4 :|"^(*)" z2 E2 G2 A2 | %21
w: _ has come; as|He Him- self was fore-|tell- ing.|4. Let praise and|
w: * en's door the|vic- to- ry u- ni-|ver- sal.||
w: _ good grace, con-|clude in bliss- ful and|sweet song.||
 !breath!B4 e2 (d2- | dc B2 c2) c2 | !breath!B2 c3 B A2 | G2 (F3 G) A2 | F4 E4 | z2 E2 G2 A2 | %27
w: thanks ring loud-|* * * * ly|forth un- to God,|at all _ times|prais- ing|and hon- or|
w: ||||||
w: ||||||
 !breath!B4 e2 (d2- | dc B2 c2) c2 | !breath!B2 c3 B A2 | G2 (F3 G) A2 | F4 !breath!E4 | e4 d2 c2 | %33
w: Him yet more|_ _ _ _ and|more in all our|do- ing _ and|speak- ing|that He may|
w: ||||||
w: ||||||
 !breath!B2 e2 (d3 e | f2 d2) c4 | !breath!B3 B E2 F2 | !breath!G2 F2 (G^A B2- | %37
w: lead with love _|_ _ and|grace be- yond our|death, from pain _ _|
w: ||||
w: ||||
 B)B !breath!B4 B2 |[M:6/4] c2 =A2 F4 G2 A2 |[M:4/4] F4 E4 |] %40
w: _ re- lieved, to|joy and peace ev- er-|last- ing.|
w: |||
w: |||
V:2
 z8 | B,2 (B,3 CDE) | F2 !breath!G4 A2 | G2 F2 !breath!E2 F2- | FE =D2 C2 C2 | E2 ^D2 E4 | z8 | %7
w: |1. In qui- * * *|et joy we|jour- ney on, to-|* geth- er, joy- ful-|ly sing- ing,||
w: |2. He is _ _ _|the best who,|firm and strong, de-|* stryed our foes, all|in- fer- nal,||
w: |3. The peace _ _ _|so free that|You have giv’n may|_ we en- joy all|our life long.||
 B,2 (B,3 CDE) | F2 !breath!G4 A2 | G2 F2 !breath!E2 F2- | FE =D2 C2 C2 | E2 ^D2 !breath!E4 | %12
w: both great _ _ _|and small, and|pure in heart, our|_ joy- ous song loud-|ly ring- ing.|
w: and with _ _ _|His death as|Lord and God has|_ brought new life, life|e- ter- nal,|
w: Grant us _ _ _|the gift to|bear our lives with-|* out de- spair, with|pa- tience strong|
 E2 (G3 F) E2 | D2 C2 F2 G2 | !breath!^A2 B2 (E2 F2) | G2 (=A3 GFE | %16
w: Sal- va- * tion|now to us has|come, for Christ _|from death _ _ _|
w: as prom- * ised|us by an- gel|hosts and by _|His word; _ _ _|
w: that all _ the|days you’ve giv’n to|us in pa- *|tience may, _ _ _|
 !breath!D2) E2 CC !breath!B,2 | F2 F2 (GFED) |[M:6/4] C3 C D2 (E3 D C2- |[M:4/4] C2 D2) E4 :| z8 | %21
w: _ to life has come;|as He Him- * * *|self was fore- tell- * *|* * ing.||
w: _ to heav- en's door|the vic- to- * * *|ry u- ni- ver- * *|* * sal.||
w: _ by Your good grace,|con- clude in _ _ _|bliss- ful and sweet _ _|_ _ song.||
 z8 | z8 | z8 | z8 | z8 | z8 | z8 | z8 | z8 | z8 | z8 | z8 | z8 | z8 | z8 | z8 | z8 |[M:6/4] z12 | %39
w: ||||||||||||||||||
w: ||||||||||||||||||
w: ||||||||||||||||||
[M:4/4] z8 |] %40
w: |
w: |
w: |
V:3
 z8 | z8 | z2 B,2 (A,B,) (CD) | !breath!E3 D C2 C2 | !breath!B,B,B,B, A,2 G,A, | B,4 E4 | z8 | z8 | %8
w: ||1. In qui- * et _|joy we jour- ney|on, to- geth- er, joy- ful- ly|sing- ing,|||
w: ||2. He is _ the _|best who, firm and|strong, de- stryed our foes, all in-|fer- nal,|||
w: ||3. The peace _ so _|free that You have|giv’n may we en- joy all our|life long.|||
 z2 B,2 (A,B,) (CD) | !breath!E3 D C2 C2 | !breath!B,B,B,B, A,2 G,A, | B,4 !breath!E4 | z8 | z8 | %14
w: both great _ and _|small, and pure in|heart, our joy- ous song loud- ly|ring- ing.|||
w: and with _ His _|death as Lord and|God has brought new life, life e-|ter- nal,|||
w: Grant us _ the _|gift to bear our|lives with- out de- spair, with pa-|tience strong|||
 z4 z2 F2 | B,4 C4 | !breath!B,B, (B3 ^A) (GF) | !breath!E2 (D3 C) B,2 | %18
w: for|Christ from|death to life _ has _|come; as _ He|
w: and|by His|word; to heav- * en's _|door the _ vic-|
w: in|pa- tience|may, by Your _ good _|grace, con- * clude|
[M:6/4] E2 (E3 DCB,) A,2 C2 |[M:4/4] B,4 E4 :| z8 | B,2 (B,3 CDE) | F2 !breath!G4 A2 | %23
w: Him- self _ _ _ was fore-|tell- ing.||4. Let praise _ _ _|and thanks ring|
w: to- ry _ _ _ u- ni-|ver- sal.||||
w: in bliss- * * * ful and|sweet song.||||
 G2 F2 !breath!E2 F2- | FE =D2 C2 C2 | E2 ^D2 E4 | z8 | B,2 (B,3 CDE) | F2 !breath!G4 A2 | %29
w: loud- ly forth un-|* to God, at all|times prais- ing||and hon- * * *|or Him yet|
w: ||||||
w: ||||||
 G2 F2 !breath!E2 F2- | FE =D2 C2 C2 | E2 ^D2 !breath!E4 | E2 (G3 F) E2 | !breath!D2 C2 F2 G2 | %34
w: more and more in|_ all our do- ing|and speak- ing|that He _ may|lead with love and|
w: |||||
w: |||||
 !breath!^A2 B2 (E2 F2) | G2 (=A3 G FE | !breath!D2) E2 CC !breath!B,2 | F2 F2 (GFED) | %38
w: grace be- yond _|our death, _ _ _|_ from pain re- lieved,|to joy and _ _ _|
w: ||||
w: ||||
[M:6/4] C3 C D2 (E3 D C2- |[M:4/4] C2 D2) E4 |] %40
w: peace ev- er- last- * *|* * ing.|
w: ||
w: ||

